Catalina-light/actions/16/list-remove-all-symbolic.svg

<?xml version="1.0" encoding="UTF-8" standalone="no"?>
<svg
   xmlns:dc="http://purl.org/dc/elements/1.1/"
   xmlns:cc="http://creativecommons.org/ns#"
   xmlns:rdf="http://www.w3.org/1999/02/22-rdf-syntax-ns#"
   xmlns:svg="http://www.w3.org/2000/svg"
   xmlns="http://www.w3.org/2000/svg"
   xmlns:sodipodi="http://sodipodi.sourceforge.net/DTD/sodipodi-0.dtd"
   xmlns:inkscape="http://www.inkscape.org/namespaces/inkscape"
   viewBox="0 0 16 16"
   id="svg2"
   version="1.1"
   inkscape:version="0.91 r13725"
   sodipodi:docname="list-remove-all-symbolic.svg">
  <metadata
     id="metadata10">
    <rdf:RDF>
      <cc:Work
         rdf:about="">
        <dc:format>image/svg+xml</dc:format>
        <dc:type
           rdf:resource="http://purl.org/dc/dcmitype/StillImage" />
      </cc:Work>
    </rdf:RDF>
  </metadata>
  <sodipodi:namedview
     pagecolor="#ffffff"
     bordercolor="#666666"
     borderopacity="1"
     objecttolerance="10"
     gridtolerance="10"
     guidetolerance="10"
     inkscape:pageopacity="0"
     inkscape:pageshadow="2"
     inkscape:window-width="640"
     inkscape:window-height="480"
     id="namedview8"
     showgrid="false"
     inkscape:zoom="41.1875"
     inkscape:cx="3.6783005"
     inkscape:cy="8"
     inkscape:current-layer="svg2" />
  <defs
     id="defs3051">
    <style
       type="text/css"
       id="current-color-scheme">
      .ColorScheme-NegativeText {
        color:#da4453;
      }
      </style>
  </defs>
  <path
     style="color:#da4453;fill:currentColor;fill-opacity:1;stroke:none"
     class="ColorScheme-NegativeText"
     d="M 8,2 C 4.6916,2 2,4.6915657 2,8 c 0,3.308434 2.6915743,6 6,6 3.30846,0 6,-2.691566 6,-6 C 14,4.6915657 11.308451,2 8,2 Z m 0,2.0273438 c 2.19006,0 3.972657,1.7825619 3.972657,3.9726562 0,0.7278 -0.197572,1.40999 -0.540738,1.99721 L 6.0027902,4.5680804 C 6.5900273,4.224949 7.2721914,4.0273438 8,4.0273438 Z M 4.5680804,6.0027902 9.9972097,11.431919 C 9.4099555,11.775051 8.7278257,11.972657 8,11.972657 5.8099657,11.972657 4.0273438,10.190094 4.0273438,8 c 0,-0.7278 0.1976051,-1.4099641 0.5407366,-1.9972098 z"
     id="path6"
     inkscape:connector-curvature="0" />
</svg>

<svg version="1.1" viewBox="0 0 16 16" xmlns="http://www.w3.org/2000/svg">
<defs>
<style id="current-color-scheme" type="text/css">.ColorScheme-NegativeText {
        color:#da4453;
      }</style>
</defs>
<path class="ColorScheme-NegativeText" d="m8 2c-3.3084 0-6 2.6916-6 6 0 3.3084 2.6916 6 6 6 3.3085 0 6-2.6916 6-6 0-3.3084-2.6915-6-6-6zm0 2.0273c2.1901 0 3.9727 1.7826 3.9727 3.9727 0 0.7278-0.19757 1.41-0.54074 1.9972l-5.4291-5.4291c0.58724-0.34313 1.2694-0.54074 1.9972-0.54074zm-3.4319 1.9754 5.4291 5.4291c-0.58725 0.34313-1.2694 0.54074-1.9972 0.54074-2.19 0-3.9727-1.7826-3.9727-3.9727 0-0.7278 0.19761-1.41 0.54074-1.9972z" color="#da4453" fill="#363636"/>
</svg>
